img/icon-payment/logo-boleto.svg

<svg width="85" height="39" viewBox="0 0 85 39" fill="none" xmlns="http://www.w3.org/2000/svg">
<path fill-rule="evenodd" clip-rule="evenodd" d="M5.74414 0.64502H9.79443V38.076H5.74414V0.64502Z" fill="black"/>
<path fill-rule="evenodd" clip-rule="evenodd" d="M11.0459 0.64502H12.2978V38.076H11.0459V0.64502Z" fill="black"/>
<path fill-rule="evenodd" clip-rule="evenodd" d="M13.4023 0.64502H15.6116V38.076H13.4023V0.64502Z" fill="black"/>
<path fill-rule="evenodd" clip-rule="evenodd" d="M17.748 0.64502H19V38.076H17.748V0.64502Z" fill="black"/>
<path fill-rule="evenodd" clip-rule="evenodd" d="M19.5146 0.64502H20.472V38.076H19.5146V0.64502Z" fill="black"/>
<path fill-rule="evenodd" clip-rule="evenodd" d="M2.72461 0.64502H3.97652V38.076H2.72461V0.64502Z" fill="black"/>
<path fill-rule="evenodd" clip-rule="evenodd" d="M0 0.64502H2.20925V38.076H0V0.64502Z" fill="black"/>
<path fill-rule="evenodd" clip-rule="evenodd" d="M27.1006 0.64502H31.1509V38.076H27.1006V0.64502Z" fill="black"/>
<path fill-rule="evenodd" clip-rule="evenodd" d="M32.4023 0.64502H33.6543V38.076H32.4023V0.64502Z" fill="black"/>
<path fill-rule="evenodd" clip-rule="evenodd" d="M34.6846 0.64502H36.8938V38.076H34.6846V0.64502Z" fill="black"/>
<path fill-rule="evenodd" clip-rule="evenodd" d="M39.1035 0.64502H40.2818V38.076H39.1035V0.64502Z" fill="black"/>
<path fill-rule="evenodd" clip-rule="evenodd" d="M40.8711 0.64502H41.8284V38.076H40.8711V0.64502Z" fill="black"/>
<path fill-rule="evenodd" clip-rule="evenodd" d="M24.0811 0.64502H25.333V38.076H24.0811V0.64502Z" fill="black"/>
<path fill-rule="evenodd" clip-rule="evenodd" d="M21.3555 0.64502H23.5647V38.076H21.3555V0.64502Z" fill="black"/>
<path fill-rule="evenodd" clip-rule="evenodd" d="M43.375 0.64502H45.5843V38.076H43.375V0.64502Z" fill="black"/>
<path fill-rule="evenodd" clip-rule="evenodd" d="M47.7197 0.64502H48.9716V38.076H47.7197V0.64502Z" fill="black"/>
<path fill-rule="evenodd" clip-rule="evenodd" d="M49.5605 0.64502H50.5179V38.076H49.5605V0.64502Z" fill="black"/>
<path fill-rule="evenodd" clip-rule="evenodd" d="M54.0537 0.64502H55.3056V38.076H54.0537V0.64502Z" fill="black"/>
<path fill-rule="evenodd" clip-rule="evenodd" d="M51.3291 0.64502H53.5384V38.076H51.3291V0.64502Z" fill="black"/>
<path fill-rule="evenodd" clip-rule="evenodd" d="M56.999 0.64502H58.2509V38.076H56.999V0.64502Z" fill="black"/>
<path fill-rule="evenodd" clip-rule="evenodd" d="M58.7656 0.64502H59.723V38.076H58.7656V0.64502Z" fill="black"/>
<path fill-rule="evenodd" clip-rule="evenodd" d="M63.332 0.64502H64.5103V38.076H63.332V0.64502Z" fill="black"/>
<path fill-rule="evenodd" clip-rule="evenodd" d="M60.5342 0.64502H62.8171V38.076H60.5342V0.64502Z" fill="black"/>
<path fill-rule="evenodd" clip-rule="evenodd" d="M65.6143 0.64502H69.6646V38.076H65.6143V0.64502Z" fill="black"/>
<path fill-rule="evenodd" clip-rule="evenodd" d="M70.917 0.64502H72.1689V38.076H70.917V0.64502Z" fill="black"/>
<path fill-rule="evenodd" clip-rule="evenodd" d="M73.2002 0.64502H75.4831V38.076H73.2002V0.64502Z" fill="black"/>
<path fill-rule="evenodd" clip-rule="evenodd" d="M77.6191 0.64502H78.7974V38.076H77.6191V0.64502Z" fill="black"/>
<path fill-rule="evenodd" clip-rule="evenodd" d="M79.3857 0.64502H80.3431V38.076H79.3857V0.64502Z" fill="black"/>
<path fill-rule="evenodd" clip-rule="evenodd" d="M81.8896 0.64502H84.0989V38.076H81.8896V0.64502Z" fill="black"/>
<path fill-rule="evenodd" clip-rule="evenodd" d="M4.49219 38.1496H81.3741V17.1912H4.49219V38.1496Z" fill="white"/>
<path d="M5.96484 37.3406V18.3677H13.1081C14.5809 18.3677 15.7592 18.5883 16.6429 18.956C17.5266 19.3237 18.1894 19.912 18.7049 20.7209C19.2203 21.5298 19.4413 22.3387 19.4413 23.2212C19.4413 24.0301 19.2203 24.7655 18.7785 25.5009C18.3366 26.2363 17.6739 26.8246 16.7902 27.2658C17.9684 27.6335 18.8521 28.1483 19.4413 28.9572C20.0304 29.7661 20.3986 30.7221 20.3986 31.8252C20.3986 32.7077 20.1777 33.5166 19.8095 34.3255C19.4413 35.0609 18.9994 35.6492 18.4103 36.0904C17.8212 36.5316 17.1584 36.8258 16.3483 37.0464C15.5383 37.267 14.5073 37.3406 13.2554 37.3406H5.96484ZM8.46866 26.3834H12.5926C13.6972 26.3834 14.5073 26.3098 15.0228 26.1627C15.6855 25.9421 16.1274 25.648 16.4956 25.2067C16.7902 24.7655 17.0111 24.1772 17.0111 23.5154C17.0111 22.8535 16.8638 22.3387 16.5692 21.824C16.2747 21.3092 15.8328 21.0151 15.2437 20.868C14.6546 20.7209 13.6972 20.5738 12.3717 20.5738H8.5423V26.3834H8.46866ZM8.46866 35.1344H13.1817C13.9918 35.1344 14.5809 35.1344 14.8755 35.0609C15.4646 34.9873 15.9065 34.7667 16.3483 34.5461C16.7902 34.3255 17.0847 33.9578 17.3057 33.5166C17.5266 33.0753 17.6739 32.487 17.6739 31.8987C17.6739 31.1633 17.5266 30.575 17.1584 30.0603C16.7902 29.5455 16.2747 29.1778 15.6119 28.9572C14.9491 28.7366 14.0654 28.663 12.8135 28.663H8.39502V35.1344H8.46866Z" fill="black"/>
<path d="M22.6084 30.5014C22.6084 27.9276 23.3448 26.0891 24.744 24.839C25.9223 23.8094 27.3951 23.2947 29.0889 23.2947C31.0035 23.2947 32.55 23.883 33.7283 25.1331C34.9066 26.3833 35.4957 28.0747 35.4957 30.2808C35.4957 32.0457 35.2011 33.443 34.6856 34.4725C34.1701 35.502 33.3601 36.2374 32.3291 36.8257C31.2981 37.414 30.1935 37.6347 29.0152 37.6347C27.1005 37.6347 25.5541 37.0463 24.3022 35.7962C23.1975 34.546 22.6084 32.7811 22.6084 30.5014ZM25.0386 30.5014C25.0386 32.2664 25.4068 33.59 26.2168 34.4725C27.0269 35.355 27.9842 35.7962 29.1625 35.7962C30.3408 35.7962 31.2981 35.355 32.0345 34.4725C32.7709 33.59 33.2128 32.2664 33.2128 30.4279C33.2128 28.7365 32.8446 27.4128 32.0345 26.6039C31.2245 25.7214 30.2671 25.2802 29.1625 25.2802C27.9842 25.2802 27.0269 25.7214 26.2168 26.6039C25.4068 27.4128 25.0386 28.7365 25.0386 30.5014Z" fill="black"/>
<path d="M38.2197 37.3406V18.3677H40.5763V37.3406H38.2197Z" fill="black"/>
<path d="M53.6108 32.9282L56.041 33.2224C55.6728 34.6196 54.9363 35.7227 53.9054 36.458C52.8744 37.267 51.5488 37.6347 50.0024 37.6347C48.014 37.6347 46.3939 37.0463 45.2156 35.7962C44.0374 34.546 43.4482 32.8547 43.4482 30.575C43.4482 28.2953 44.0374 26.4568 45.2156 25.2067C46.3939 23.9565 47.9404 23.2947 49.8551 23.2947C51.6961 23.2947 53.1689 23.883 54.3472 25.2067C55.5255 26.4568 56.1146 28.2217 56.1146 30.5014C56.1146 30.6485 56.1146 30.8691 56.1146 31.0897H45.8048C45.8784 32.634 46.3203 33.7371 47.0567 34.546C47.7931 35.355 48.7504 35.7227 49.9287 35.7227C50.8124 35.7227 51.5488 35.502 52.138 35.0608C52.8007 34.6196 53.2426 33.8842 53.6108 32.9282ZM45.9521 29.1777H53.6108C53.5372 28.0011 53.2426 27.1187 52.7271 26.6039C51.9907 25.7214 51.0333 25.2802 49.8551 25.2802C48.7504 25.2802 47.8667 25.6479 47.1303 26.3833C46.3939 26.9716 46.0257 28.0011 45.9521 29.1777Z" fill="black"/>
<path d="M64.068 35.2817L64.3625 37.3407C63.6998 37.4878 63.1106 37.5614 62.5951 37.5614C61.7851 37.5614 61.1223 37.4143 60.6068 37.1937C60.165 36.8995 59.7967 36.6054 59.6495 36.1641C59.4285 35.7229 59.3549 34.8404 59.3549 33.3697V25.4275H57.6611V23.5891H59.3549V20.2063L61.7114 18.8091V23.5891H64.068V25.4275H61.7114V33.5168C61.7114 34.1786 61.7851 34.6198 61.8587 34.8404C61.9323 35.0611 62.0796 35.2081 62.2269 35.2817C62.4478 35.4288 62.6688 35.4287 63.037 35.4287C63.2579 35.3552 63.6261 35.3552 64.068 35.2817Z" fill="black"/>
<path d="M65.4678 30.5014C65.4678 27.9276 66.2042 26.0891 67.6034 24.839C68.7816 23.8094 70.2545 23.2947 71.9482 23.2947C73.8629 23.2947 75.4094 23.883 76.5877 25.1331C77.7659 26.3833 78.3551 28.0747 78.3551 30.2808C78.3551 32.0457 78.0605 33.443 77.545 34.4725C77.0295 35.502 76.2195 36.2374 75.1885 36.8257C74.1575 37.414 73.0529 37.6347 71.8746 37.6347C69.9599 37.6347 68.4134 37.0463 67.1615 35.7962C66.0569 34.546 65.4678 32.7811 65.4678 30.5014ZM67.898 30.5014C67.898 32.2664 68.2662 33.59 69.0762 34.4725C69.8863 35.355 70.8436 35.7962 72.0219 35.7962C73.2001 35.7962 74.1575 35.355 74.8939 34.4725C75.6303 33.59 76.0722 32.2664 76.0722 30.4279C76.0722 28.7365 75.704 27.4128 74.8939 26.6039C74.0838 25.7214 73.1265 25.2802 72.0219 25.2802C70.8436 25.2802 69.8863 25.7214 69.0762 26.6039C68.2662 27.4128 67.898 28.7365 67.898 30.5014Z" fill="black"/>
</svg>

<svg width="85" height="39" fill="none" xmlns="http://www.w3.org/2000/svg"><path fill-rule="evenodd" clip-rule="evenodd" d="M5.744.645h4.05v37.431h-4.05V.645zM11.046.645h1.252v37.431h-1.252V.645zM13.402.645h2.21v37.431h-2.21V.645zM17.748.645H19v37.431h-1.252V.645zM19.515.645h.957v37.431h-.957V.645zM2.725.645h1.252v37.431H2.725V.645zM0 .645h2.21v37.431H0V.645zM27.1.645h4.05v37.431H27.1V.645zM32.402.645h1.252v37.431h-1.252V.645zM34.685.645h2.209v37.431h-2.21V.645zM39.103.645h1.179v37.431h-1.178V.645zM40.871.645h.957v37.431h-.957V.645zM24.081.645h1.252v37.431h-1.252V.645zM21.355.645h2.21v37.431h-2.21V.645zM43.375.645h2.21v37.431h-2.21V.645zM47.72.645h1.252v37.431H47.72V.645zM49.56.645h.958v37.431h-.958V.645zM54.054.645h1.252v37.431h-1.252V.645zM51.33.645h2.208v37.431H51.33V.645zM56.999.645h1.252v37.431h-1.252V.645zM58.766.645h.957v37.431h-.957V.645zM63.332.645h1.178v37.431h-1.178V.645zM60.534.645h2.283v37.431h-2.283V.645zM65.614.645h4.05v37.431h-4.05V.645zM70.917.645h1.252v37.431h-1.252V.645zM73.2.645h2.283v37.431H73.2V.645zM77.62.645h1.177v37.431H77.62V.645zM79.386.645h.957v37.431h-.957V.645zM81.89.645h2.209v37.431h-2.21V.645z" fill="#000"/><path fill-rule="evenodd" clip-rule="evenodd" d="M4.492 38.15h76.882V17.19H4.492V38.15z" fill="#fff"/><path d="M5.965 37.34V18.369h7.143c1.473 0 2.651.22 3.535.588.884.368 1.546.956 2.062 1.765a4.49 4.49 0 01.736 2.5c0 .81-.22 1.544-.662 2.28-.442.735-1.105 1.324-1.989 1.765 1.178.368 2.062.882 2.651 1.691.59.81.958 1.765.958 2.868 0 .883-.221 1.692-.59 2.5-.368.736-.81 1.324-1.399 1.765-.589.442-1.252.736-2.062.956-.81.221-1.84.295-3.093.295h-7.29zm2.504-10.957h4.124c1.104 0 1.914-.073 2.43-.22.662-.22 1.104-.515 1.473-.956.294-.442.515-1.03.515-1.692a3.22 3.22 0 00-.442-1.691c-.294-.515-.736-.809-1.325-.956-.59-.147-1.547-.294-2.872-.294h-3.83v5.81H8.47zm0 8.751h4.713c.81 0 1.399 0 1.694-.073.589-.074 1.03-.294 1.472-.515.442-.22.737-.588.958-1.03a3.74 3.74 0 00.368-1.617c0-.736-.147-1.324-.516-1.839-.368-.514-.883-.882-1.546-1.103-.663-.22-1.547-.294-2.799-.294H8.395v6.471h.074zM22.608 30.501c0-2.573.737-4.412 2.136-5.662 1.178-1.03 2.651-1.544 4.345-1.544 1.915 0 3.461.588 4.64 1.838 1.178 1.25 1.767 2.942 1.767 5.148 0 1.765-.295 3.162-.81 4.191-.516 1.03-1.326 1.765-2.357 2.354-1.03.588-2.136.809-3.314.809-1.915 0-3.46-.589-4.713-1.839-1.104-1.25-1.694-3.015-1.694-5.295zm2.43 0c0 1.765.369 3.089 1.179 3.971.81.883 1.767 1.324 2.946 1.324 1.178 0 2.135-.441 2.872-1.324.736-.882 1.178-2.206 1.178-4.044 0-1.692-.368-3.015-1.178-3.824-.81-.883-1.768-1.324-2.872-1.324-1.179 0-2.136.441-2.946 1.324-.81.809-1.178 2.133-1.178 3.897zM38.22 37.34V18.369h2.356V37.34H38.22zM53.61 32.928l2.431.294c-.368 1.398-1.105 2.5-2.136 3.236-1.03.809-2.356 1.177-3.903 1.177-1.988 0-3.608-.589-4.786-1.839-1.179-1.25-1.768-2.941-1.768-5.221 0-2.28.59-4.118 1.768-5.368s2.724-1.912 4.64-1.912c1.84 0 3.313.588 4.491 1.912 1.178 1.25 1.768 3.015 1.768 5.294v.589h-10.31c.073 1.544.515 2.647 1.252 3.456.736.809 1.693 1.177 2.872 1.177.883 0 1.62-.221 2.209-.662.663-.441 1.105-1.177 1.473-2.133zm-7.658-3.75h7.659c-.074-1.177-.368-2.06-.884-2.574-.736-.883-1.694-1.324-2.872-1.324-1.105 0-1.988.368-2.725 1.103-.736.589-1.104 1.618-1.178 2.795zM64.068 35.282l.294 2.059c-.662.147-1.251.22-1.767.22-.81 0-1.473-.147-1.988-.367-.442-.294-.81-.589-.957-1.03-.221-.441-.295-1.324-.295-2.794v-7.942H57.66v-1.839h1.694v-3.383l2.356-1.397v4.78h2.357v1.838h-2.357v8.09c0 .662.074 1.103.148 1.323.073.221.22.368.368.442.22.147.442.147.81.147.22-.074.59-.074 1.031-.147zM65.468 30.501c0-2.573.736-4.412 2.135-5.662 1.179-1.03 2.651-1.544 4.345-1.544 1.915 0 3.461.588 4.64 1.838 1.178 1.25 1.767 2.942 1.767 5.148 0 1.765-.294 3.162-.81 4.191-.516 1.03-1.326 1.765-2.356 2.354-1.031.588-2.136.809-3.314.809-1.915 0-3.462-.589-4.713-1.839-1.105-1.25-1.694-3.015-1.694-5.295zm2.43 0c0 1.765.368 3.089 1.178 3.971.81.883 1.768 1.324 2.946 1.324 1.178 0 2.135-.441 2.872-1.324.736-.882 1.178-2.206 1.178-4.044 0-1.692-.368-3.015-1.178-3.824-.81-.883-1.768-1.324-2.872-1.324-1.178 0-2.136.441-2.946 1.324-.81.809-1.178 2.133-1.178 3.897z" fill="#000"/></svg>
